X: 190
T: Eltons slip
T: Longways for &c.
%R: reel
B: Daniel Wright "Wright's Compleat Collection of Celebrated Country Dances" 1740 p.95
S: http://library.efdss.org/cgi-bin/dancebooks.cgi
Z: 2014 John Chambers <jc:trillian.mit.edu>
N: The 2nd strain has initial repeat but no final repeat; not fixed.
M: C|
L: 1/8
K: Bb
% - - - - - - - - - - - - - - - - - - - - - - - - -
F2 |\
B2c2 d2e2 | f2(ed) c2(ef) |\
(gf)(ed) c3B | B6 :: (ga) |\
(ba)(ga) (ba)(ef) | (ba)(gf) (ga)(bf) |
(gf)(ed) (ed)(cB) | c6 (ef) |\
(gf)(ef) (gf)(ef) | (gf)(ed) c2f2 |\
(gf)(ed) (cB)(cd) | B6 |]
% - - - - - - - - - - - - - - - - - - - - - - - - -
%%begintext align
%% Lead up all, the 1st Man change places with the
%% 2d Man and lead out, and then in, the 1st Wo.
%% doing the same :| then the Men and We. fall back,
%% and then meet, foot it, then the 2d Cu. being
%% in the 1st Cu. place must cast off, then fall back
%% as before, and foot it, and cast off, do this to the
%% last.
%%endtext
% - - - - - - - - - - - - - - - - - - - - - - - - -
%%sep 2 4 300
